wp-content/uploads/2023/10/Layer_1-1.svg

<svg xmlns="http://www.w3.org/2000/svg" width="623" height="320" viewBox="0 0 623 320" fill="none"><g clip-path="url(#clip0_3_1175)"><path d="M388.822 -164.924C333.479 -188.774 274.9 -189.072 214.471 -166.843C154.042 -144.614 109.756 -106.497 82.4497 -52.1168C55.6145 1.94738 52.7283 58.3858 74.4787 117.566C96.2291 176.746 134.981 217.734 190.453 241.537C246.443 265.154 304.866 265.508 365.275 243.14C425.683 220.772 469.99 182.793 496.851 128.72C524.143 74.4625 527.055 18.0147 505.314 -41.1397C483.573 -100.294 444.786 -141.298 388.822 -164.924ZM364.746 241.749C258.56 280.821 200.675 168.972 168.932 82.6207C140.296 4.75362 106.224 -125.451 214.974 -165.443C320.678 -204.312 379.22 -92.2604 410.804 -6.34976C439.264 71.0248 472.96 201.891 364.728 241.697L364.746 241.749Z" fill="#FAF9F5"></path><path d="M394.234 368.391C412.554 361.811 422.067 341.61 415.48 323.27C408.894 304.93 388.703 295.396 370.382 301.975C352.061 308.555 342.548 328.756 349.135 347.096C355.721 365.437 375.913 374.97 394.234 368.391Z" fill="#FAF9F5"></path></g><defs><clipPath id="clip0_3_1175"><rect width="459.121" height="564.493" fill="white" transform="translate(0 -89.8203) rotate(-19.7547)"></rect></clipPath></defs></svg>

<svg xmlns="http://www.w3.org/2000/svg" width="623" height="320" fill="none"><g clip-path="url(#a)" fill="#FAF9F5"><path d="M388.822-164.924c-55.343-23.85-113.922-24.148-174.351-1.919S109.756-106.497 82.45-52.117C55.614 1.947 52.728 58.386 74.479 117.566c21.75 59.18 60.502 100.168 115.974 123.971 55.99 23.617 114.413 23.971 174.822 1.603 60.408-22.368 104.715-60.347 131.576-114.42 27.292-54.257 30.204-110.705 8.463-169.86-21.741-59.154-60.528-100.158-116.492-123.784Zm-24.076 406.673C258.56 280.821 200.675 168.972 168.932 82.621c-28.636-77.867-62.708-208.072 46.042-248.064C320.678-204.312 379.22-92.26 410.804-6.35c28.46 77.375 62.156 208.241-46.076 248.047l.018.052ZM394.234 368.391c18.32-6.58 27.833-26.781 21.246-45.121-6.586-18.34-26.777-27.874-45.098-21.295-18.321 6.58-27.834 26.781-21.247 45.121 6.586 18.341 26.778 27.874 45.099 21.295Z"/></g><defs><clipPath id="a"><path fill="#fff" transform="rotate(-19.755 -257.926 -44.91)" d="M0 0h459.121v564.493H0z"/></clipPath></defs></svg>
